X: 109201
Q:"Strathspey."
M: C
L: 1/16
K: A
|: ua2 |\
veuc3 vc3uB vA3vB uA3uE | F3AE3A F3AE3a |\
ec3 c3B A3BA3B | ce3 ve3u^d e4-e2 ::\
u=g2 |\
fd3vd4uB vc3vdue3uc | dB3 B3G A3Bc3A |\


